!!!SOCIAL_FUNCTION:	songs with hunting dance
!!!PDT:	1956
!!!OTL: No_43_Cow_Creek_Hunting_Dance_Song_(j).krn
!!!LANG: Non-Tone
!!!LING_GROUP: Muskogean
!!!REG: Florida
**kern
*staff1
=1-
*clefF4
*k[b-]
*M3/4
2r
8r
8F\
=2
8c\L
[8c\J
4c\]
(4d\
=3||
*M2/4
4c\)
8A\L
8B-\J
=4||
*M3/4
4A\
4F\
4B-\
=5||
*M2/4
4..A\
16F\
=6
2A\
=7!|:
4c\
4A\
=8
16F\LK
[8.F\J
4F\]
=9||
*M3/4
2F\
16c\LK
8.c\J
=10||
*M2/4
(8.c\L
16A\Jk)
4c\
=11
8B-\L
8A\J
8F\L
8F\J
=12||
*M3/4
4F\
8D\L
8D\J
8.F\L
16F\Jk
=13||
*M2/4
2F\
=14
4r
4F\
=15||
*M3/4
4A\
8F\L
[8F\J
4F\]
=16
2F\
4B-\
=17
4A\
8.F\L
16F\Jk
4B-\
=18||
*M2/4
4.A\
8F\
=19
2A\
==
*-
